X: 286
T: Josefin's
M: 3/4
L: 1/8
C: Roger Tallroth (Väsen)
R: waltz
K: Gmaj
"G"D2G2A2|B2 d3 c|B2A2G2|D4 E2|"C" C3CC2|E2G2F2|E3FE2|"D"D6|
"G"D2G2A2|B2 d3 c|B2A2G2|D4 E2|"C"C4 C2| E2F2G2|1:("D"A6|A6):||2:("D"A6|A2)B2c2||
|:"G"d2B2d2|g4f2|"C"e6|"G"d6|"C"c2e2d2|c2B2A2|"G"B3c B2|"D"A2B2c2|
"G"d2B2d2|g4f2|"C"e6|"G"d6|"C"c2e2d2|c2B2A2|"G"B3c B2|"D"A2B2c2|
"Em"B2A2G2|"D"F4G2|"C"G6|C2D2C2|"G"B,2D2G2|"D"F2E2F2|"G"G6:|

